!!!!SEGMENT: pl-kk--kk-i-481--002_zangl-johann-baptist--msza-czteroglosowa-gloria.krn
!!!cenid: 18xx:1430
!!!COM: Zangl, Johann Baptist
!!!COM-rismid: pe30084071
!!!CDT: 1821-1897
!!!CNT: Austrian; Italian
!!!OPR: Msza czterogłosowa
!!!OTL: Gloria
!!!OMV: 002
!!!PDT:
!!!AGN: Sacred; Mass
!!!SMS-siglum: PL-Kk
!!!SMS-shelfmark: Kk.I.481
!!!SMS-shelfwork: 001-002 M
!!!SMS-variant: Tenor I PL-Kk KK.I.481:0001-0003; Tenor II PL-Kk KK.I.481:0009-0011; Bas I PL-Kk KK.I.481:0017-0019; Bas II PL-Kk KK.I.481:0030-0032
!!!SMS-altvar: Tenor I PL-Kk KK.I.481:0005-0007; Tenor II PL-Kk KK.I.481:0013-0015; Bas I PL-Kk KK.I.481:0021-0023; Bas II PL-Kk KK.I.481:0026-0028; Partytura PL-Kk KK.I.481:0033-0036; Partytura PL-Kk KK.I.481:0039-0042
!!!NIFC-rismid: 1001140261
!!!URL-scan: http://repozytorium.nifc.pl/skany/pl-kk-nut--i-481
!!!ONB-nifc: UWAGA: na podstawie głosów. Proszę uzupełnić pola !!!SMS dot. partytury i głosów. Uwaga: części Mszy: 1. Kyrie, 2. Gloria, 3. Credo, 4. Sanctus, 5. Benedictus, 6. Agnus
**kern	**text	**kern	**text	**kern	**text	**kern	**text
*part4	*part4	*part3	*part3	*part2	*part2	*part1	*part1
*staff4	*staff4	*staff3	*staff3	*staff2	*staff2	*staff1	*staff1
*Iempty	*	*Iempty	*	*Itenor	*	*Itenor	*
*I"Bas II	*	*I"Bas I	*	*I"Tenor II	*	*I"Tenor I	*
*I'B 2	*	*I'B 1	*	*I'T 2	*	*I'T 1	*
*group1	*	*group1	*	*group1	*	*group1	*
*clefF4	*	*clefF4	*	*clefGv2	*	*clefGv2	*
*k[]	*	*k[]	*	*k[]	*	*k[]	*
*C:	*	*C:	*	*C:	*	*C:	*
*M4/4	*	*M4/4	*	*M4/4	*	*M4/4	*
*met(c)	*	*met(c)	*	*met(c)	*	*met(c)	*
=1	=1	=1	=1	=1	=1	=1	=1
!	!	!	!	!LO:TX:a:t=Allegro	!	!LO:TX:b:t=Gloria.	!
!LO:TX:b:t=Gloria	!	!LO:TX:b:t=Gloria	!	!LO:TX:b:t=Gloria	!	!LO:TX:a:t=Allegro	!
!LO:TX:a:t=Allegro	!	!LO:TX:a:t=Allegro	!	!LO:TX:t=P:problem:partia zapisana w kluczu wiolinowym	!	!LO:TX:t=P:problem:partia zapisana w kluczu wiolinowym	!
4.C/	Glo-	4.E\	Glo-	4.G/	Glo-	4.c\	Glo-
8C/	-ri-	8E\	-ri-	8G/	-ri-	8c\	-ri-
2C/	-a	2E\	-a	2G/	-a	2c\	-a
=2	=2	=2	=2	=2	=2	=2	=2
4BB-X/	in	4G\	in	4c\	in	4e\	in
4BB-/	ex-	4G\	ex-	4c\	ex-	4e\	ex-
4AA/	-cel-	4A\	-cel-	4c\	-cel-	4f\	-cel-
4C/	-sis	4G\	-sis	4c\	-sis	4e\	-sis
=3	=3	=3	=3	=3	=3	=3	=3
(2F\	De-	(2F\	De-	4c\	De-	1d	De-
.	.	.	.	8B\L	.	.	.
.	.	.	.	8A\J	.	.	.
2G\)	.	2G\)	.	2B\	.	.	.
=4	=4	=4	=4	=4	=4	=4	=4
2C/	-o	2G\	-o	2c\	-o,	2e\	-o
2r	.	2r	.	2r	.	2r	.
=5	=5	=5	=5	=5	=5	=5	=5
4.C/	Glo-	4.G\	Glo-	4.c\	Glo-	4.e\	Glo-
8C/	-ri-	8G\	-ri-	8c\	-ri-	8e\	-ri-
2BB/	-a	2G#X\	-a	2d\	-a	2e\	-a
=6	=6	=6	=6	=6	=6	=6	=6
4AA/	in	4A\	in	4c\	in	4e\	in
4AA/	ex-	4E\	ex-	4c\	ex-	4e\	ex-
4AA/	-cel-	4D\	-cel-	4c\	-cel-	4f#X\	-cel-
4AA/	-sis	4D\	-sis	4c\	-sis	4f#\	-sis
=7	=7	=7	=7	=7	=7	=7	=7
1GG	De-	(2E\	De-	(4c\	De-	2.g\	De-
.	.	.	.	8B\L	.	.	.
.	.	.	.	8A\J)	.	.	.
.	.	2F\)	.	2B\	.	.	.
.	.	.	.	.	.	4B\	.
!LO:LB:g=original	!	!LO:LB:g=original	!	!LO:LB:g=original	!	!	!
=8	=8	=8	=8	=8	=8	=8	=8
2C/	-o	2E\	-o	2c\	-o	2c\	-o
2r	.	2r	.	2r	.	2r	.
!	!	!	!	!	!	!LO:LB:g=original	!
=9	=9	=9	=9	=9	=9	=9	=9
4F\	et	4F\	et	4A/	et	4c\	et
4F\	in	4F\	in	4A/	in	4c\	in
4F\	ter-	4F\	ter-	4A/	ter-	4c\	ter-
4F\	-ra	4F\	-ra	4A/	-ra	4c\	-ra
=10	=10	=10	=10	=10	=10	=10	=10
2C/	pax	2E\	pax	2G/	pax	(2c\	pax
2r	.	2r	.	2r	.	8B\L	.
.	.	.	.	.	.	8c\J)	.
.	.	.	.	.	.	(8d\L	ho-
.	.	.	.	.	.	8e\J)	.
=11	=11	=11	=11	=11	=11	=11	=11
4D\	pax	4G\	pax	4B\	pax	2.f\	-mi-
4D\	ho-	4G\	ho-	4B\	ho-	.	.
4D\	-mi-	4G\	-mi-	4B\	-mi-	.	.
4D\	-ni-	4G\	-ni-	4B\	-ni-	4f\	-ni-
=12	=12	=12	=12	=12	=12	=12	=12
4C/	-bus	2G\	-bus	2c\	-bus	2e\	-bus
(4C/	bo-	.	.	.	.	.	.
8BB/L	.	2r	.	2r	.	2r	.
8C/J)	.	.	.	.	.	.	.
8D\L	-ne	.	.	.	.	.	.
8E\J	.	.	.	.	.	.	.
=13	=13	=13	=13	=13	=13	=13	=13
2.F\	vo-	4A\	bo-	4c\	bo-	4d\	bo-
.	.	4A\	-nae	4c\	-nae	4d\	-nae
.	.	4A\	vo-	4c\	vo-	4d\	vo-
4F#X\	-lun-	4A\	-lun-	4c\	-lun-	4d\	-lun-
=14	=14	=14	=14	=14	=14	=14	=14
4G\	-ta-	4G\	-ta-	4B\	-ta-	4d\	-ta-
4G\	-tis	4G\	-tis	4B\	-tis	4d\	-tis
2r	.	2r	.	2r	.	2r	.
=15	=15	=15	=15	=15	=15	=15	=15
2C/	Lau-	2G\	la-	2c\	lau-	2e\	lau-
4E\	-da-	4G\	-da-	4c\	-da-	4e\	-da-
4E\	-mus	4G\	-mus	4c\	-mus	4e\	-mus
!LO:LB:g=original	!	!LO:LB:g=original	!	!	!	!LO:LB:g=original	!
=16	=16	=16	=16	=16	=16	=16	=16
4G\	te	4G\	te	4B\	Te	4d\	te
4r	.	4r	.	4r	.	4r	.
4G\	be-	4B\	be-	4d\	be-	4d\	be-
4G\	-ne-	4B\	-ne-	4d\	-ne-	4d\	-ne-
!	!	!	!	!LO:LB:g=original	!	!	!
=17	=17	=17	=17	=17	=17	=17	=17
*	*	*	*	*	*	*^	*
2D\	-di-	2A\	-di-	2d\	-di-	2f/	2d\	-di-
4F\	-ci-	4A\	-ci-	4d\	-ci-	4f/	4d\	-ci-
4F\	-mus	4A\	-mus	4d\	-mus	4f/	4d\	-mus
=18	=18	=18	=18	=18	=18	=18	=18	=18
4A\	te	4A\	te	4c#X\	Te	4e/	4c#X\	te
4r	.	4r	.	4r	.	4r	4rCyy	.
4A\	a-	4A\	a-	4c#\	a-	4e/	4c#\	a-
4A\	-do-	4A\	-do-	4c#\	-do-	4e/	4c#\	-do-
=19	=19	=19	=19	=19	=19	=19	=19	=19
2D\	-ra-	2A\	-ra-	2d\	-ra-	2f/	2d\	-ra-
2C/	-mus	2A-X\	-mus	2d\	-mus	2f/	2d\	-mus
=20	=20	=20	=20	=20	=20	=20	=20	=20
4BB/	te	4G\	te	4d\	Te	4f/	4d\	te
4GG/	glo-	4G\	glo-	4B\	glo-	4g/	4B\	glo-
4C/	-ri-	4G\	-ri-	4c\	-ri-	4e/	4c\	-ri-
4E\	-fi-	4G\	-fi-	4c\	-fi-	4c/	4c\	-fi-
*	*	*	*	*	*	*v	*v	*
=21	=21	=21	=21	=21	=21	=21	=21
2F\	-ca-	2A\	-ca-	2c\	-ca-	2d\	-ca-
2G\	-mus	2G\	-mus	2B\	-mus	2d\	-mus
=22	=22	=22	=22	=22	=22	=22	=22
2C/	te	2E\	te	2c\	Te	2c\	te
2r	.	2r	.	2r	.	2r	.
=23	=23	=23	=23	=23	=23	=23	=23
!	!	!LO:TX:a:t=1.	!	!LO:TX:a:t=1.	!	!LO:TX:a:t=5.	!
2E\	Gra-	1r	.	1r	.	1r	.
2E\	-ti-	.	.	.	.	.	.
=24	=24	=24	=24	=24	=24	=24	=24
[<1E	-as	4r	.	4r	.	1r	.
.	.	(4E\	gra-	(4G#X/	gra-	.	.
.	.	4F#X\)	.	4A/)	.	.	.
.	.	4G#X\	-ti-	4B\	-ti-	.	.
!LO:LB:g=original	!	!LO:LB:g=original	!	!	!	!	!
=25	=25	=25	=25	=25	=25	=25	=25
4E\]	.	4A\	-as	4c\	-as	1r	.
4AA/	a-	4r	.	4r	.	.	.
4BB/	-gi-	2r	.	2r	.	.	.
4C/	-mus	.	.	.	.	.	.
!	!	!	!	!LO:LB:g=original	!	!	!
=26	=26	=26	=26	=26	=26	=26	=26
[1D	ti-	4r	.	4r	.	1r	.
.	.	4D\	a-	(4F#X/	a-	.	.
.	.	(4E\	-gi-	4G/)	.	.	.
.	.	4F#X\)	.	4A/	-gi-	.	.
=27	=27	=27	=27	=27	=27	=27	=27
4D\]	-bi	4G\	-mus	4B\	-mus	1r	.
(4GG/	pro-	4r	.	4r	.	.	.
4AA/)	.	2r	.	2r	.	.	.
4BB/	-pter	.	.	.	.	.	.
!	!	!	!	!	!	!LO:LB:g=original	!
=28	=28	=28	=28	=28	=28	=28	=28
2C/	ma-	2G\	pro-	2c\	pro-	2e\	pro-
2G\	-gnam	2G\	-pter	2B\	-pter	2d\	-pter
=29	=29	=29	=29	=29	=29	=29	=29
(2E\	glo-	2A\	ma-	2c\	ma-	2f#X\	ma-
2GG/)	.	2G\	-gnam	2B\	-gnam	2g\	-gnam
=30	=30	=30	=30	=30	=30	=30	=30
2BB/	.	2G\	glo-	2G/	glo-	(4g\	glo-
.	.	.	.	.	.	4d\)	.
4C/	-ri-	4G\	-ri-	4G/	-ri-	4e\	-ri-
4C/	-am	4E\	-am	4A/	-am	4c\	-am
=31	=31	=31	=31	=31	=31	=31	=31
2D\	tu-	2D\	tu-	2G/	tu-	2B\	tu-
4D\	-am.	4D\	-am	4F#X/	-am	4A/	-am
4r	.	4r	.	4r	.	4r	.
=32	=32	=32	=32	=32	=32	=32	=32
!LO:TX:a:t=5.	!	!LO:TX:a:t=1	!	!LO:TX:a:t=1.	!	!	!
1r	.	1r	.	1r	.	2d\	Do-
.	.	.	.	.	.	4d\	-mi-
.	.	.	.	.	.	4d\	-ne
=33	=33	=33	=33	=33	=33	=33	=33
1r	.	4r	.	4r	.	2.d\	De-
.	.	(4D\	De-	(4F#X/	De-	.	.
.	.	4E\	.	4G/)	.	.	.
.	.	4F#X\)	.	4A/	.	4d\	-us
=34	=34	=34	=34	=34	=34	=34	=34
1r	.	4G\	-i	4B\	-i	4d\	A-
.	.	4r	.	4r	.	4B\	-gnus
.	.	2r	.	2r	.	(4c\	De-
.	.	.	.	.	.	4d\)	i
!	!	!LO:PB:g=original	!	!	!	!	!
=35	=35	=35	=35	=35	=35	=35	=35
1r	.	4r	.	4r	.	2.e\	Fi-
.	.	(4E\	Fi-	(4G#X/	Fi-	.	.
.	.	4F#X\)	.	4A/)	.	.	.
.	.	4G#X\	-li-	4B\	-li-	4e\	-li-
!	!	!	!	!LO:LB:g=original	!	!	!
=36	=36	=36	=36	=36	=36	=36	=36
1r	.	4A\	-us	4c\	-us	4e\	-us
.	.	4r	.	4r	.	(4A/	sus-
.	.	2r	.	2r	.	4c\)	.
.	.	.	.	.	.	8e\	-ci-
.	.	.	.	.	.	8e\	-pe
!LO:PB:g=original	!	!	!	!	!	!LO:LB:g=original	!
=37	=37	=37	=37	=37	=37	=37	=37
4.D\	sus-	4.A\	sus-	4.c\	sus-	4.f#X\	sus-
8D\	-ci-	8A\	-ci-	8c\	-ci-	8f#\	-ci-
2E\	-pe	2Gn\	-pe	2B\	-pe	2g\	-pe
=38	=38	=38	=38	=38	=38	=38	=38
2BB/	de-	2F#X\	de-	2B\	de-	2d#X\	de-
2E\	-pre-	2G\	-pre-	2G/	-pre-	2e\	-pre-
=39	=39	=39	=39	=39	=39	=39	=39
4BB/	-ca-	4G\	-ca-	4G/	-ca-	4dn\	-ca-
4BB/	-ti-	4G\	-ti-	4G/	-ti-	4g\	-ti-
4C/	-o-	4G\	-o-	4G/	-o-	4e\	-o-
4C/	-nem	4G\	-nem	4A/	-nem	4c\	-nem
=40	=40	=40	=40	=40	=40	=40	=40
1D	no-	(2G\	no-	1A	no-	1A	no-
.	.	2F#X\)	.	.	.	.	.
=41	=41	=41	=41	=41	=41	=41	=41
2GG/	-stram.	2G\	-stram.	2G/	-stram.	2G/	-stram
2r	.	2r	.	2r	.	2r	.
=42	=42	=42	=42	=42	=42	=42	=42
4.C/	Quo-	4.E\	Quo-	4.G/	Quo-	4.c\	Quo-
8C/	-ni-	8E\	-ni-	8G/	-ni-	8c\	-ni-
2BB/	-am	2G\	-am	2G/	-am	2d\	-am
!	!	!LO:LB:g=original	!	!	!	!	!
=43	=43	=43	=43	=43	=43	=43	=43
2BB-X/	tu	2G\	tu	2c\	Tu	2e\	tu
!	!	!LO:TX:a:t=P:problem:korekta nuty	!	!	!	!	!
4AA/	so-	4A\	so-	4c\	so-	4f\	so-
4C/	-lus	4G\	-lus	4c\	-lus	4e\	-lus
=44	=44	=44	=44	=44	=44	=44	=44
!	!	!LO:TX:a:t=P:problem:korekta nuty	!	!	!	!	!
2F\	San-	(2A\	San-	(4c\	San-	1d	San-
.	.	.	.	8B\L	.	.	.
.	.	.	.	8A\J	.	.	.
2G\	.	2G\)	.	2B\)	.	.	.
=45	=45	=45	=45	=45	=45	=45	=45
2C/	-ctus	2G\	-ctus	2c\	-ctus	2e\	-ctus
2r	.	2r	.	2r	.	2r	.
!LO:LB:g=original	!	!	!	!LO:PB:g=original	!	!	!
=46	=46	=46	=46	=46	=46	=46	=46
(2C/	tu	(2G\	tu	(2c\	Tu	1e	t
2BB/)	.	2G#X\)	.	2d\)	.	.	.
!	!	!	!	!	!	!LO:PB:g=original	!
=47	=47	=47	=47	=47	=47	=47	=47
2AA/	so-	(4A\	so-	2c\	so-	2e\	so-
.	.	4E\)	.	.	.	.	.
2AA/	-lus	2D\	-lus	2c\	-lus	2f#X\	-lus
=48	=48	=48	=48	=48	=48	=48	=48
2GG/	Do-	2E\	Do-	(4c\	Do-	2.g\	Do-
.	.	.	.	8B\L	.	.	.
.	.	.	.	8A\J	.	.	.
2GG/	-mi-	2F\	-mi-	4B\)	.	.	.
.	.	.	.	4B\	-mi-	4B\	-mi-
=49	=49	=49	=49	=49	=49	=49	=49
4C/	-nus	4E\	-nus	4c\	-nus	4c\	-nus
4r	.	4r	.	4r	.	(8d\L	Cum
.	.	.	.	.	.	8c\J)	.
2r	.	2r	.	2r	.	(8B\L	san-
.	.	.	.	.	.	8c\J)	.
.	.	.	.	.	.	(8d\L	-cto
.	.	.	.	.	.	8e\J)	.
=50	=50	=50	=50	=50	=50	=50	=50
!LO:TX:a:t=1.	!	!	!	!	!	!	!
1r	.	4r	.	4r	.	2.f\	Spi-
.	.	4A\	um	4c\	Cum	.	.
.	.	4A\	Spi-	4c\	Spi-	.	.
.	.	4A\	-ri-	4c\	-ri-	4f\	-ri-
=51	=51	=51	=51	=51	=51	=51	=51
(>4C/	Cum	4G\	-tu	4c\	-tu	4e\	-tu
(8D/L	.	4r	.	4r	.	4r	.
8C/J))	.	.	.	.	.	.	.
(8BB/L	san-	2r	.	2r	.	2r	.
8C/J)	.	.	.	.	.	.	.
(8D\L	-cto	.	.	.	.	.	.
8E\J)	.	.	.	.	.	.	.
!	!	!LO:LB:g=original	!	!	!	!	!
=52	=52	=52	=52	=52	=52	=52	=52
2.F\	Spi-	4r	.	4r	.	4r	.
.	.	4A\	cum	4c\	cum	4f\	Cum
.	.	4A\	Spi-	4c\	Spi-	4f\	Spi-
4F\	-ri-	4A\	-ri-	4c\	-ri-	4f\	-ri-
=53	=53	=53	=53	=53	=53	=53	=53
4E\	-tu	4c\	-tu	4c\	-tu	4g\	-tu
4r	.	4r	.	4r	.	4r	.
2E\	in	2c\	in	2c\	in	2g\	in
!LO:LB:g=original	!	!	!	!LO:LB:g=original	!	!	!
=54	=54	=54	=54	=54	=54	=54	=54
2D\	glo-	2A\	glo-	2c\	glo-	2f#X\	glo-
4GG/	-ri-	4G\	-ri-	4B\	-ri-	4fn\	-ri-
4GG/	-a	4G\	-a	4B\	-a	4f\	-a
!	!	!	!	!	!	!LO:LB:g=original	!
=55	=55	=55	=55	=55	=55	=55	=55
2C/	De-	2G\	De-	2c\	De-	2e\	De-
4AA/	-i	4A\	-i	4c#X\	-i	4e\	-i
4AA/	in	4A\	in	4c#\	in	4e\	in
=56	=56	=56	=56	=56	=56	=56	=56
2D\	glo-	2A\	glo-	2d\	glo-	2f\	glo-
4C/	-ri-	4A-X\	-ri-	4d\	-ri-	4f\	-ri-
4C/	-a	4A-\	-a	4d\	-a	4f\	-a
=57	=57	=57	=57	=57	=57	=57	=57
(4BB/	De-	2G\	De-	(4d\	De-	(4f\	De-
4GG/)	.	.	.	4B\)	.	4g\)	.
(4C/	-i	2G\	-i	2c\	-i	(4e\	-i
4E\)	.	.	.	.	.	4c\)	.
=58	=58	=58	=58	=58	=58	=58	=58
2F\	Pa-	(2A\	pa-	(2c\	Pa-	1d	pa-
2G\	.	2G\)	.	2B\)	.	.	.
=59	=59	=59	=59	=59	=59	=59	=59
2C/	-tris	1E	-tris	2c\	-tris	2c\	-tris
2r	.	.	.	2r	.	2r	.
!	!	!LO:LB:g=original	!	!	!	!	!
=60	=60	=60	=60	=60	=60	=60	=60
(2G\	A-	[1G	A-	(2B\	A-	(2d\	A-
2C\	.	.	.	[2c\)	.	2e\	.
=61	=61	=61	=61	=61	=61	=61	=61
1G)	.	1G]	.	2c\]	.	1d)	.
.	.	.	.	2B\	.	.	.
=62	=62	=62	=62	=62	=62	=62	=62
4C/	-men	4G\	-men	4c\	-men	4e\	-men
(4G\	A-	4r	.	4r	.	4r	.
4E\)	.	2r	.	2r	.	2r	.
4C/	-men	.	.	.	.	.	.
=63	=63	=63	=63	=63	=63	=63	=63
(2GG/	A-	2B\	A-	(2d\	A-	1g	A-
2C/)	.	[2c\	.	2e\	.	.	.
=64	=64	=64	=64	=64	=64	=64	=64
1GG	.	2c\]	.	1d)	.	1g	.
.	.	2B\	.	.	.	.	.
=65	=65	=65	=65	=65	=65	=65	=65
1C;	-men.	1c	-men.	1c;	-men	1c;	-men.
==	==	==	==	==	==	==	==
*-	*-	*-	*-	*-	*-	*-	*-
!!!system-decoration: [(g1)]
!!!RDF**kern: >= above
!!!RDF**kern: <= below
!!!AIN: 2 empty 2 tenor
!!!ENC: Anna Matuszewska
!!!END: 2021-01-31
!!!ENC: Marcin Jachim
!!!END: 2021-01-23
